rospo-icon-theme-classic-common/22x22/places/folder-green-linux.svg

<svg height="22" width="22" xmlns="http://www.w3.org/2000/svg"><rect height="12" opacity=".2" rx="1" width="20" x="1" y="8.5"/><path d="m1 16c0 .554.446 1 1 1h18c .554 0 1-.446 1-1v-11c0-.554-.446-1-1-1h-10v-1c0-.554-.446-1-1-1h-7c-.554 0-1 .446-1 1" fill="#60924b"/><rect height="12" opacity=".2" rx="1" width="20" x="1" y="7.5"/><rect fill="#e4e4e4" height="8" rx="1" width="16" x="3" y="6"/><rect fill="#87b158" height="12" rx="1" width="20" x="1" y="8"/><path d="m2 2c-.554 0-1 .446-1 1v .5c0-.554.446-1 1-1h7c .554 0 1 .446 1 1v-.5c0-.554-.446-1-1-1zm8 2v .5h10c .554 0 1 .446 1 1v-.5c0-.554-.446-1-1-1z" fill="#fff" opacity=".1"/><path d="m11.88 15.037c-.56.26-1.081.258-1.431.232-.417-.03-.7528-.144-.9003-.244-.0909-.061-.2145-.038-.2761.053-.0615.091-.0377.215.0532.276.2371.161.6566.28 1.0952.312.074.005.155.009.243.009.381 0 .866-.037 1.384-.278.099-.046.142-.164.096-.264-.046-.099-.165-.142-.264-.096zm2.21-.295c.019-1.727.196-4.9907-3.11-4.727-3.2645.263-2.3989 3.711-2.4476 4.866-.0431.611-.2459 1.358-.5324 2.118h.8824c.0907-.322.1574-.641.1861-.944.0532.037.1101.073.1709.107.0988.058.1836.136.2736.218.2101.191.4484.408.914.435.031.002.063.003.093.003.471 0 .793-.206 1.052-.372.124-.079.231-.147.332-.18.287-.09.537-.235.724-.419.029-.029.056-.058.082-.089.104.382.247.812.405 1.241h1.884c-.452-.699-.919-1.383-.909-2.257zm-5.2416-.939s0 0-.0001-.001c-.0324-.563.2373-1.037.6024-1.059.3651-.021.6873.419.7193.983h.001c.001.03.002.06.002.09-.116.029-.22.071-.3135.121-.0004-.005-.0007-.009-.0011-.013-.0313-.32-.2021-.562-.3818-.54-.1795.022-.2998.299-.2686.619.0136.14.0538.265.1097.359-.014.011-.0533.04-.0985.073-.034.025-.0753.055-.1252.092-.1359-.179-.229-.435-.2457-.724zm3.6986 1.393c-.013.298-.403.578-.762.69l-.003.001c-.149.049-.283.134-.424.225-.237.151-.483.309-.837.309-.024 0-.048-.001-.071-.003-.325-.019-.4767-.157-.6689-.332-.1016-.093-.2065-.188-.3416-.268l-.0029-.001c-.292-.165-.4732-.37-.4848-.548-.0057-.089.0338-.166.1175-.229.182-.136.304-.225.3846-.284.0897-.066.1168-.086.1367-.105.0144-.013.0298-.028.0465-.045.1672-.162.4469-.434.8759-.434.263 0 .553.101.862.3.146.095.273.139.434.194.11.038.235.081.403.153l.003.001c.156.065.341.182.332.376zm-.086-.7c-.03-.015-.061-.029-.094-.043-.151-.065-.272-.108-.373-.143.056-.109.09-.245.093-.392.008-.358-.172-.648-.403-.649-.23-.001-.423.289-.431.647v.035c-.142-.065-.282-.112-.418-.142-.001-.013-.002-.027-.002-.04-.013-.653.387-1.192.894-1.206s.928.504.942 1.156c.005.295-.073.567-.208.777z" fill="#2f3e1f"/></svg>

<svg xmlns="http://www.w3.org/2000/svg" width="22" height="22" version="1">
 <rect style="opacity:0.2" width="20" height="12" x="1" y="8.5" rx="1" ry="1"/>
 <path style="fill:#60924b" d="M 1,16 C 1,16.554 1.446,17 2,17 H 20 C 20.554,17 21,16.554 21,16 V 5 C 21,4.446 20.554,4 20,4 H 10 V 3 C 10,2.446 9.554,2 9,2 H 2 C 1.446,2 1,2.446 1,3"/>
 <rect style="opacity:0.2" width="20" height="12" x="1" y="7.5" rx="1" ry="1"/>
 <rect style="fill:#dcdcdc" width="16" height="8" x="3" y="6" rx="1" ry="1"/>
 <rect style="fill:#87b158" width="20" height="12" x="1" y="8" rx="1" ry="1"/>
 <path style="opacity:0.1;fill:#ffffff" d="M 2,2 C 1.446,2 1,2.446 1,3 V 3.5 C 1,2.946 1.446,2.5 2,2.5 H 9 C 9.554,2.5 10,2.946 10,3.5 V 3 C 10,2.446 9.554,2 9,2 Z M 10,4 V 4.5 H 20 C 20.554,4.5 21,4.946 21,5.5 V 5 C 21,4.446 20.554,4 20,4 Z"/>
 <path style="fill:#2f3e1f" d="M 11.88,15.037 C 11.32,15.297 10.799,15.295 10.449,15.269 10.032,15.239 9.6962,15.125 9.5487,15.025 9.4578,14.964 9.3342,14.987 9.2726,15.078 9.2111,15.169 9.2349,15.293 9.3258,15.354 9.5629,15.515 9.9824,15.634 10.421,15.666 10.495,15.671 10.576,15.675 10.664,15.675 11.045,15.675 11.53,15.638 12.048,15.397 12.147,15.351 12.19,15.233 12.144,15.133 12.098,15.034 11.979,14.991 11.88,15.037 Z M 14.09,14.742 C 14.109,13.015 14.286,9.7513 10.98,10.015 7.7155,10.278 8.5811,13.726 8.5324,14.881 8.4893,15.492 8.2865,16.239 8,16.999 H 8.8824 C 8.9731,16.677 9.0398,16.358 9.0685,16.055 9.1217,16.092 9.1786,16.128 9.2394,16.162 9.3382,16.22 9.423,16.298 9.513,16.38 9.7231,16.571 9.9614,16.788 10.427,16.815 10.458,16.817 10.49,16.818 10.52,16.818 10.991,16.818 11.313,16.612 11.572,16.446 11.696,16.367 11.803,16.299 11.904,16.266 12.191,16.176 12.441,16.031 12.628,15.847 12.657,15.818 12.684,15.789 12.71,15.758 12.814,16.14 12.957,16.57 13.115,16.999 H 14.999 C 14.547,16.3 14.08,15.616 14.09,14.742 Z M 8.8484,13.803 C 8.8484,13.803 8.8484,13.803 8.8483,13.802 8.8159,13.239 9.0856,12.765 9.4507,12.743 9.8158,12.722 10.138,13.162 10.17,13.726 10.17,13.726 10.171,13.726 10.171,13.726 10.172,13.756 10.173,13.786 10.173,13.816 10.057,13.845 9.953,13.887 9.8595,13.937 9.8591,13.932 9.8588,13.928 9.8584,13.924 V 13.924 C 9.8271,13.604 9.6563,13.362 9.4766,13.384 9.2971,13.406 9.1768,13.683 9.208,14.003 9.208,14.003 9.208,14.003 9.208,14.003 9.2216,14.143 9.2618,14.268 9.3177,14.362 9.3037,14.373 9.2644,14.402 9.2192,14.435 9.1852,14.46 9.1439,14.49 9.094,14.527 8.9581,14.348 8.865,14.092 8.8483,13.803 Z M 12.547,15.196 C 12.534,15.494 12.144,15.774 11.785,15.886 L 11.782,15.887 C 11.633,15.936 11.499,16.021 11.358,16.112 11.121,16.263 10.875,16.421 10.521,16.421 10.497,16.421 10.473,16.42 10.45,16.418 10.125,16.399 9.9733,16.261 9.7811,16.086 9.6795,15.993 9.5746,15.898 9.4395,15.818 L 9.4366,15.817 C 9.1446,15.652 8.9634,15.447 8.9518,15.269 8.9461,15.18 8.9856,15.103 9.0693,15.04 9.2513,14.904 9.3733,14.815 9.4539,14.756 9.5436,14.69 9.5707,14.67 9.5906,14.651 9.605,14.638 9.6204,14.623 9.6371,14.606 9.8043,14.444 10.084,14.172 10.513,14.172 10.776,14.172 11.066,14.273 11.375,14.472 11.521,14.567 11.648,14.611 11.809,14.666 11.919,14.704 12.044,14.747 12.212,14.819 L 12.215,14.82 C 12.371,14.885 12.556,15.002 12.547,15.196 Z M 12.461,14.496 C 12.431,14.481 12.4,14.467 12.367,14.453 12.216,14.388 12.095,14.345 11.994,14.31 12.05,14.201 12.084,14.065 12.087,13.918 V 13.918 C 12.095,13.56 11.915,13.27 11.684,13.269 11.454,13.268 11.261,13.558 11.253,13.916 V 13.916 C 11.253,13.928 11.253,13.94 11.253,13.951 11.111,13.886 10.971,13.839 10.835,13.809 10.834,13.796 10.833,13.782 10.833,13.769 V 13.769 C 10.82,13.116 11.22,12.577 11.727,12.563 12.234,12.549 12.655,13.067 12.669,13.719 V 13.719 C 12.674,14.014 12.596,14.286 12.461,14.496 Z"/>
</svg>
